icons/pencil-16.svg

<svg xmlns="http://www.w3.org/2000/svg" width="16" height="16" viewBox="0 0 16 16"><path fill-rule="evenodd" d="M11.013 1.427a1.75 1.75 0 012.474 0l1.086 1.086a1.75 1.75 0 010 2.474l-8.61 8.61c-.21.21-.47.364-.756.445l-3.251.93a.75.75 0 01-.927-.928l.929-3.25a1.75 1.75 0 01.445-.758l8.61-8.61zm1.414 1.06a.25.25 0 00-.354 0L10.811 3.75l1.439 1.44 1.263-1.263a.25.25 0 000-.354l-1.086-1.086zM11.189 6.25L9.75 4.81l-6.286 6.287a.25.25 0 00-.064.108l-.558 1.953 1.953-.558a.249.249 0 00.108-.064l6.286-6.286z"/></svg>

<svg xmlns="http://www.w3.org/2000/svg" width="16" height="16" viewBox="0 0 16 16">
  <defs/>
  <path d="M11.013,1.427 C11.696,0.744 12.804,0.744 13.487,1.427 L14.573,2.513 C15.256,3.196 15.256,4.304 14.573,4.987 L5.963,13.597 C5.753,13.807 5.493,13.961 5.207,14.042 L1.956,14.972 C1.694,15.047 1.412,14.974 1.219,14.781 C1.027,14.588 0.954,14.306 1.029,14.044 L1.958,10.794 C2.039,10.508 2.193,10.247 2.403,10.036 L11.013,1.426 Z M11.189,6.25 L9.75,4.81 L3.464,11.097 C3.434,11.127 3.412,11.164 3.4,11.205 L2.842,13.158 L4.795,12.6 C4.836,12.588 4.873,12.566 4.903,12.536 Z M12.427,2.487 C12.38,2.44 12.316,2.414 12.25,2.414 C12.184,2.414 12.12,2.44 12.073,2.487 L10.811,3.75 L12.25,5.19 L13.513,3.927 C13.56,3.88 13.586,3.816 13.586,3.75 C13.586,3.684 13.56,3.62 13.513,3.573 Z"/>
</svg>
